public/images/d13.svg

<svg width="100" height="100" viewBox="0 0 100 100" fill="none" xmlns="http://www.w3.org/2000/svg">
<path d="M89.205 21.3174C88.3266 19.5104 87.3101 17.7663 86.1305 16.1217L73.5296 20.6889C74.9949 22.1827 76.2262 23.8618 77.2332 25.6574L89.205 21.3174ZM33.5033 35.1982L20.8986 39.7655C21.0597 41.7788 21.4087 43.7673 21.8978 45.7157L33.8716 41.3739C33.4822 39.3567 33.3441 37.2784 33.5033 35.1982Z" fill="#C22133"/>
<path d="M61.4766 17.7621C64.0985 18.9809 66.3693 20.6427 68.2854 22.5911L80.8863 18.0238C77.3956 13.1452 72.641 9.06886 66.8162 6.36211C48.8009 -2.00453 27.3084 5.78524 18.9096 23.7258C16.19 29.5308 15.1792 35.697 15.6549 41.6682L28.2577 37.1009C28.4668 34.3808 29.1323 31.655 30.3541 29.0418C35.8125 17.3858 49.7733 12.3276 61.4766 17.7621Z" fill="#DB212E"/>
<path d="M74.917 40.6969C74.7156 43.4151 74.0271 46.1409 72.8015 48.756C67.345 60.4139 53.3823 65.4721 41.6809 60.0376C39.0552 58.817 36.7671 57.1685 34.8587 55.2163L22.2827 59.774C25.7657 64.6526 30.5146 68.7309 36.3432 71.4395C54.3585 79.8043 75.8472 72.0145 84.2479 54.0721C86.9694 48.2708 87.9725 42.1047 87.493 36.1392L74.917 40.6969Z" fill="#DB212E"/>
<path d="M78.0159 25.3739L66.0421 29.7138C68.2669 33.6832 69.318 38.2524 68.9727 42.8483L81.5488 38.2925C81.1882 33.7978 79.9856 29.4101 78.0159 25.3739ZM22.6826 45.4294L10.7089 49.7732C11.8078 54.1208 13.7162 58.2525 16.34 61.9296L28.9141 57.37C25.6861 54.0692 23.54 49.8916 22.6826 45.4294Z" fill="#EB2126"/>
<path d="M87.3799 18.0111C86.9829 17.3692 86.5706 16.737 86.1314 16.1219L73.5304 20.6891C74.0847 21.2546 74.5949 21.8544 75.082 22.4694L87.3799 18.0111ZM33.4552 37.7187C33.4245 36.882 33.4379 36.0416 33.5031 35.1992L20.8983 39.7664C20.9635 40.5706 21.0652 41.3691 21.186 42.1656L33.4552 37.7187Z" fill="#AD213B"/>
<path d="M87.4923 36.139L74.9163 40.6967C74.7839 42.4999 74.4311 44.307 73.8538 46.0834L87.5422 41.1131C87.6401 39.4474 87.6246 37.7856 87.4923 36.139ZM22.2839 59.7757C23.2525 61.1338 24.3246 62.429 25.4888 63.6515L39.1792 58.6792C37.5796 57.6821 36.1335 56.5188 34.858 55.2161L22.2839 59.7757Z" fill="#BA2133"/>
<path d="M86.8444 86.3335V87.4643H90.1375V97.4795H91.3842V87.4643H94.6792V86.3335H86.8444ZM79.2823 87.4634V91.1577H82.351V92.2885H79.2823V97.4785H78.0356V86.3345H84.6065V87.4634H79.2823ZM73.5779 86.3348H74.8246V97.4808H73.5779V86.3348ZM69.1218 97.4795V92.2245H63.5578V97.4795H62.3111V86.3335H63.5578V91.0956H69.1218V86.3335H70.3685V97.4795H69.1218ZM55.8239 97.6546C54.3048 97.6546 52.945 97.0014 52.0666 96.1112L52.899 95.1867C53.7448 95.9985 54.721 96.5257 55.8718 96.5257C57.3582 96.5257 58.2865 95.7922 58.2865 94.6136C58.2865 93.5783 57.6632 92.99 55.6167 92.2564C53.202 91.3969 52.3869 90.6175 52.3869 89.0091C52.3869 87.225 53.7928 86.1572 55.8872 86.1572C57.3908 86.1572 58.3498 86.6042 59.2934 87.353L58.4937 88.3234C57.6785 87.6548 56.9267 87.288 55.8085 87.288C54.2722 87.288 53.6336 88.0521 53.6336 88.9289C53.6336 89.8534 54.0498 90.3768 56.288 91.1753C58.766 92.0654 59.5332 92.8944 59.5332 94.5506C59.5332 96.3022 58.158 97.6546 55.8239 97.6546ZM47.0143 97.4795L42.9061 91.3974C42.6337 90.9829 42.2655 90.4251 42.1216 90.1386C42.1216 90.5531 42.1542 91.9533 42.1542 92.5741V97.4795H39.9466V86.3335H42.089L46.0553 92.2245C46.3276 92.639 46.694 93.1968 46.8378 93.4834C46.8378 93.0688 46.8071 91.6687 46.8071 91.0459V86.3335H49.0128V97.4795H47.0143ZM29.3675 97.4795V86.3335H37.1371V88.5149H31.6057V90.4423H34.8202V92.6066H31.6057V95.298H37.3768V97.4795H29.3675ZM23.0079 93.5313H20.5453V97.4797H18.307V86.3337H23.1997C25.3095 86.3337 27.0529 87.497 27.0529 89.8676C27.0529 92.4482 25.3267 93.5313 23.0079 93.5313ZM23.1212 88.4999H20.5454V91.3651H23.1518C24.1914 91.3651 24.7514 90.8857 24.7514 89.9153C24.7514 88.9449 24.1108 88.4999 23.1212 88.4999ZM10.9253 97.6546C7.9985 97.6546 6 95.521 6 91.9222C6 88.3234 8.03111 86.1572 10.9579 86.1572C13.8674 86.1572 15.8659 88.2928 15.8659 91.8916C15.8659 95.4904 13.8348 97.6546 10.9253 97.6546ZM10.91 88.3711C9.34299 88.3711 8.30346 89.6299 8.30346 91.8916C8.30346 94.1533 9.39094 95.4407 10.9579 95.4407C12.5249 95.4407 13.5625 94.1838 13.5625 91.9222C13.5625 89.6605 12.4769 88.3711 10.91 88.3711Z" fill="#241F21"/>
</svg>

<svg xmlns="http://www.w3.org/2000/svg" width="100" height="100" fill="none"><path fill="#C22133" d="M89.205 21.317a35.6 35.6 0 0 0-3.075-5.195l-12.6 4.567a23.5 23.5 0 0 1 3.703 4.968zM33.503 35.198 20.9 39.766a36.4 36.4 0 0 0 .999 5.95l11.974-4.342a23.2 23.2 0 0 1-.369-6.176"/><path fill="#DB212E" d="M61.477 17.762a23.3 23.3 0 0 1 6.808 4.83l12.601-4.568a35.8 35.8 0 0 0-14.07-11.662C48.801-2.005 27.308 5.785 18.91 23.726a35.5 35.5 0 0 0-3.255 17.942l12.603-4.567c.209-2.72.874-5.446 2.096-8.06 5.459-11.655 19.42-16.713 31.123-11.279M74.917 40.697a23 23 0 0 1-2.115 8.059c-5.457 11.658-19.42 16.716-31.121 11.282a23.2 23.2 0 0 1-6.822-4.822l-12.576 4.558a35.7 35.7 0 0 0 14.06 11.665c18.015 8.365 39.504.576 47.905-17.367a35.4 35.4 0 0 0 3.245-17.933z"/><path fill="#EB2126" d="m78.016 25.374-11.974 4.34a23.3 23.3 0 0 1 2.93 13.134l12.577-4.556a36 36 0 0 0-3.533-12.918M22.683 45.429l-11.974 4.344A36.2 36.2 0 0 0 16.34 61.93l12.574-4.56a23.4 23.4 0 0 1-6.231-11.94"/><path fill="#AD213B" d="M87.38 18.011a34 34 0 0 0-1.249-1.89l-12.6 4.568a22 22 0 0 1 1.551 1.78zM33.455 37.72c-.03-.837-.017-1.677.048-2.52l-12.605 4.567c.066.805.167 1.603.288 2.4z"/><path fill="#BA2133" d="m87.492 36.139-12.576 4.558a22.8 22.8 0 0 1-1.062 5.386l13.688-4.97a36 36 0 0 0-.05-4.974M22.284 59.776a35.6 35.6 0 0 0 3.205 3.875l13.69-4.972a23.3 23.3 0 0 1-4.321-3.463z"/><path fill="#241F21" d="M86.844 86.334v1.13h3.294V97.48h1.246V87.464h3.295v-1.13zm-7.562 1.13v3.694h3.069v1.13h-3.069v5.19h-1.246V86.336h6.57v1.128zm-5.704-1.13h1.247v11.147h-1.247zM69.122 97.48v-5.254h-5.564v5.255H62.31V86.333h1.247v4.763h5.564v-4.763h1.246V97.48zm-13.298.176c-1.52 0-2.879-.654-3.757-1.544l.832-.924c.846.812 1.822 1.339 2.973 1.339 1.486 0 2.414-.734 2.414-1.912 0-1.036-.623-1.624-2.67-2.358-2.414-.86-3.23-1.638-3.23-3.247 0-1.784 1.407-2.852 3.501-2.852 1.504 0 2.463.447 3.406 1.196l-.8.97c-.815-.668-1.566-1.035-2.684-1.035-1.537 0-2.175.764-2.175 1.64 0 .925.416 1.449 2.654 2.247 2.478.89 3.245 1.72 3.245 3.376 0 1.751-1.375 3.104-3.71 3.104m-8.81-.175-4.108-6.083c-.272-.414-.64-.972-.784-1.258 0 .414.032 1.814.032 2.435v4.906h-2.207V86.333h2.142l3.966 5.892c.273.414.639.972.783 1.258 0-.414-.03-1.814-.03-2.437v-4.713h2.205V97.48zm-17.647 0V86.333h7.77v2.182h-5.531v1.927h3.214v2.165h-3.214v2.691h5.77v2.182zm-6.36-3.949h-2.462v3.949h-2.238V86.334H23.2c2.11 0 3.853 1.163 3.853 3.534 0 2.58-1.726 3.663-4.045 3.663m.114-5.031h-2.576v2.865h2.607c1.04 0 1.6-.48 1.6-1.45s-.641-1.415-1.63-1.415m-12.196 9.155C7.998 97.655 6 95.52 6 91.922s2.031-5.765 4.958-5.765c2.91 0 4.908 2.136 4.908 5.735 0 3.598-2.031 5.763-4.94 5.763m-.015-9.284c-1.567 0-2.607 1.259-2.607 3.52s1.088 3.55 2.655 3.55 2.605-1.257 2.605-3.519c0-2.261-1.086-3.55-2.653-3.55"/></svg>
